assets/img/icon-teacher.svg

<svg width="16" height="16" viewBox="0 0 16 16" fill="none" xmlns="http://www.w3.org/2000/svg">
<g clip-path="url(#clip0_175_1225)">
<path fill-rule="evenodd" clip-rule="evenodd" d="M13.7314 3.68579L9.7402 1.06717C9.23113 0.728681 8.60227 0.583064 8.01465 0.582037C7.42654 0.581009 6.79796 0.724654 6.28914 1.05876L6.28801 1.0595L2.27668 3.67819C0.536673 4.81415 0.536685 7.35826 2.27669 8.49422L3.00284 8.96827L2.99671 11.8451L2.9967 11.8467C2.9967 12.4558 3.22769 13.0442 3.56467 13.5123C3.90156 13.9804 4.38659 14.3861 4.96354 14.5784L7.0902 15.2851L7.09342 15.2861C7.37634 15.3787 7.70452 15.4133 7.99754 15.4133C8.29122 15.4133 8.61915 15.3786 8.90289 15.2874L11.0372 14.5782C11.6142 14.3859 12.0985 13.9804 12.4354 13.5123C12.7724 13.0442 13.0034 12.4558 13.0034 11.8467V8.97096L13.5167 8.63416V10C13.5167 10.4142 13.8525 10.75 14.2667 10.75C14.6809 10.75 15.0167 10.4142 15.0167 10V6.36755C15.1131 5.36087 14.6846 4.31132 13.7314 3.68579ZM13.5203 5.92566C13.4751 5.54383 13.2712 5.17794 12.9086 4.93995L8.91064 2.31692C8.70015 2.1766 8.37678 2.08267 8.01203 2.08203C7.64725 2.0814 7.32299 2.1742 7.11201 2.31291L7.11 2.31423L3.09667 4.93422C2.26336 5.47826 2.26335 6.69414 3.09666 7.23818L7.11201 9.8595C7.32303 9.99823 7.64761 10.0912 8.01334 10.0912C8.37907 10.0912 8.70365 9.99823 8.91467 9.8595L12.9085 7.23917C13.2622 7.00705 13.465 6.65324 13.5167 6.28164V6C13.5167 5.97492 13.5179 5.95012 13.5203 5.92566ZM11.5034 9.9551L9.73867 11.1129C9.2297 11.4475 8.60094 11.5912 8.01334 11.5912C7.42617 11.5912 6.79789 11.4477 6.28911 11.1136L6.28801 11.1129L4.50076 9.94615L4.4967 11.8467C4.49688 12.0841 4.59256 12.3727 4.78207 12.636C4.97177 12.8995 5.21395 13.0807 5.43693 13.1551L7.5612 13.8609C7.64526 13.8882 7.80316 13.9133 7.99754 13.9133C8.19023 13.9133 8.351 13.8886 8.44113 13.8602L10.5629 13.1552C10.7859 13.0808 11.0283 12.8996 11.218 12.636C11.4077 12.3725 11.5034 12.0842 11.5034 11.8467V9.9551Z" fill="white"/>
</g>
<defs>
<clipPath id="clip0_175_1225">
<rect width="16" height="16" fill="white"/>
</clipPath>
</defs>
</svg>

<svg width="16" height="16" fill="none" xmlns="http://www.w3.org/2000/svg"><g clip-path="url(#clip0_175_1225)"><path fill-rule="evenodd" clip-rule="evenodd" d="M13.731 3.686l-3.99-2.619C9.23.73 8.601.583 8.014.582c-.588-.001-1.217.143-1.726.477h-.001L2.277 3.68c-1.74 1.135-1.74 3.68 0 4.815l.726.474-.006 2.877v.002c0 .609.23 1.197.568 1.665.337.468.822.874 1.399 1.066l2.126.707.003.001c.283.093.612.127.905.127.293 0 .621-.034.905-.126l2.134-.709c.577-.192 1.061-.598 1.398-1.066.337-.468.568-1.056.568-1.665V8.97l.514-.337V10a.75.75 0 001.5 0V6.368a2.86 2.86 0 00-1.286-2.682zm-.21 2.24a1.362 1.362 0 00-.612-.986L8.91 2.317c-.21-.14-.534-.234-.899-.235-.365 0-.689.092-.9.23l-.002.002-4.013 2.62a1.374 1.374 0 000 2.304L7.112 9.86c.211.138.536.231.901.231.366 0 .69-.093.902-.231l3.994-2.62c.353-.233.556-.587.608-.958V6c0-.025 0-.05.003-.074zm-2.018 4.03L9.74 11.112c-.51.335-1.138.478-1.726.478-.587 0-1.215-.143-1.724-.477l-.001-.001-1.787-1.167-.004 1.9c0 .238.096.527.285.79.19.264.432.445.655.52l2.124.705c.084.027.242.052.437.052.192 0 .353-.024.443-.053l2.122-.705c.223-.074.465-.255.655-.519.19-.263.285-.552.285-.79v-1.89z" fill="#fff"/></g><defs><clipPath id="clip0_175_1225"><path fill="#fff" d="M0 0h16v16H0z"/></clipPath></defs></svg>
